Obsidian-SemiLight/actions/24s/snap-node.svg

<svg viewBox="0 0 24 24" xmlns="http://www.w3.org/2000/svg"><path d="m17 11v1h-3v1h3v1h3v-3zm-13 1v1h1v-1zm2 0v1h1v-1zm2 0v1h1v-1zm2 0v1h1v-1zm2 0v1h1v-1z" fill="#4d4d4d"/></svg>

<svg xmlns="http://www.w3.org/2000/svg" viewBox="0 0 24 24">
  <defs id="defs3051">
    <style type="text/css" id="current-color-scheme">
      .ColorScheme-Text {
        color:#4d4d4d;
      }
      </style>
  </defs>
 <path style="fill:currentColor;fill-opacity:1;stroke:none" 
     d="M 17 11 L 17 12 L 14 12 L 14 13 L 17 13 L 17 14 L 20 14 L 20 11 L 17 11 z M 4 12 L 4 13 L 5 13 L 5 12 L 4 12 z M 6 12 L 6 13 L 7 13 L 7 12 L 6 12 z M 8 12 L 8 13 L 9 13 L 9 12 L 8 12 z M 10 12 L 10 13 L 11 13 L 11 12 L 10 12 z M 12 12 L 12 13 L 13 13 L 13 12 L 12 12 z "
     class="ColorScheme-Text"
     />
</svg>
